images/alpine_hut.svg

<?xml version="1.0" encoding="UTF-8" standalone="no"?>
<svg xmlns:dc="http://purl.org/dc/elements/1.1/" xmlns:cc="http://creativecommons.org/ns#" xmlns:rdf="http://www.w3.org/1999/02/22-rdf-syntax-ns#" xmlns:svg="http://www.w3.org/2000/svg" xmlns="http://www.w3.org/2000/svg" xmlns:sodipodi="http://sodipodi.sourceforge.net/DTD/sodipodi-0.dtd" xmlns:inkscape="http://www.inkscape.org/namespaces/inkscape" version="1.1" width="14" height="14" viewBox="0 0 14 14" id="svg2" sodipodi:docname="alpine_hut.svg" inkscape:version="0.92.3 (2405546, 2018-03-11)">
  <sodipodi:namedview pagecolor="#ffffff" bordercolor="#666666" borderopacity="1" objecttolerance="10" gridtolerance="10" guidetolerance="10" inkscape:pageopacity="0" inkscape:pageshadow="2" inkscape:window-width="1881" inkscape:window-height="1051" id="namedview820" showgrid="false" inkscape:zoom="43.689097" inkscape:cx="-2.1539826" inkscape:cy="5.5795867" inkscape:window-x="0" inkscape:window-y="0" inkscape:window-maximized="1" inkscape:current-layer="svg2" inkscape:pagecheckerboard="true" />
  <metadata id="metadata8">
    <rdf:RDF>
      <cc:Work rdf:about="">
        <dc:format>image/svg+xml</dc:format>
        <dc:type rdf:resource="http://purl.org/dc/dcmitype/StillImage" />
        <dc:title></dc:title>
      </cc:Work>
    </rdf:RDF>
  </metadata>
  <defs id="defs6" />
  <path style="fill:#000000;stroke:#ffffff;stroke-width:3;stroke-linecap:round;stroke-linejoin:round;stroke-miterlimit:4;stroke-dasharray:none;stroke-opacity:0.50196078" d="M 7,0 L 0,3.5 V 5.5 L 1.5,4.8496094 V 14 H 3 V 4.1992188 L 7,2.5 L 11,4.1992188 V 14 H 12.5 V 4.8496094 L 14,5.5 V 3.5 Z M 6.9726562,5.0488281 C 6.5840971,5.0488281 6.2675781,5.3630448 6.2675781,5.7519531 C 6.2675781,6.1417342 6.584097,6.4550781 6.9726562,6.4550781 C 7.361041,6.4550781 7.6757812,6.1417342 7.6757812,5.7519531 C 7.6757812,5.3630448 7.3608664,5.0488281 6.9726562,5.0488281 Z M 5.0488281,6.1875 C 4.9393822,6.162539 4.8312529,6.2261094 4.8066406,6.3339844 L 4.3144531,8.375 C 4.2879211,8.483224 4.3541425,8.5899565 4.4628906,8.6171875 L 5.0488281,8.7578125 C 5.1556558,8.7859125 5.2664033,8.7195541 5.2910156,8.6113281 L 5.7832031,6.5722656 C 5.8095609,6.4640416 5.7430227,6.355181 5.6367188,6.328125 Z M 6.7675781,6.5644531 C 6.1938161,6.5499631 6.0488281,7.1523437 6.0488281,7.1523438 L 4.5605469,13.40625 C 4.5553069,13.43959 4.5527344,13.472519 4.5527344,13.505859 C 4.5527344,13.78026 4.7744278,14 5.0488281,14 C 5.2720838,14 5.4610884,13.85019 5.5214844,13.646484 L 6.3730469,10.126953 L 7.1816406,13.625 C 7.2340066,13.841273 7.4308241,14 7.6621094,14 C 7.9354624,14 8.1542969,13.780085 8.1542969,13.505859 C 8.1542969,13.468499 8.1525944,13.431918 8.1464844,13.396484 L 7.0332031,8.7480469 L 7.1269531,8.3398438 L 7.1992188,8.6621094 C 7.2652007,8.8720994 7.4570312,8.890625 7.4570312,8.890625 L 8.6015625,9.1835938 C 8.6249525,9.1875937 8.648315,9.1894531 8.671875,9.1894531 C 8.859346,9.1894531 9.0097656,9.0406386 9.0097656,8.8535156 C 9.0097656,8.6934486 8.900292,8.5569194 8.75,8.5214844 L 7.7578125,8.2734375 L 7.4863281,7.1660156 C 7.3564592,6.5486156 6.7675781,6.5644531 6.7675781,6.5644531 Z M 9.8300781,7.2792969 C 9.7478581,7.2792969 9.6872029,7.3408519 9.6699219,7.4199219 L 8.4882812,13.826172 C 8.4882812,13.830372 8.4863281,13.833837 8.4863281,13.835938 C 8.4863281,13.925487 8.5592405,13.998047 8.6484375,13.998047 C 8.7296075,13.998047 8.7993749,13.935444 8.8105469,13.857422 L 9.9902344,7.4511719 V 7.4394531 C 9.9902344,7.3521731 9.9192711,7.2792969 9.8300781,7.2792969 Z" id="outline" inkscape:connector-curvature="0" />
  <path id="path757" d="M 7 0 L 0 3.5 L 0 5.5 L 1.5 4.8496094 L 1.5 14 L 3 14 L 3 4.1992188 L 7 2.5 L 11 4.1992188 L 11 14 L 12.5 14 L 12.5 4.8496094 L 14 5.5 L 14 3.5 L 7 0 z M 6.9726562 5.0488281 C 6.5840971 5.0488281 6.2675781 5.3630448 6.2675781 5.7519531 C 6.2675781 6.1417342 6.584097 6.4550781 6.9726562 6.4550781 C 7.361041 6.4550781 7.6757812 6.1417342 7.6757812 5.7519531 C 7.6757812 5.3630448 7.3608664 5.0488281 6.9726562 5.0488281 z M 5.0488281 6.1875 C 4.9393822 6.162539 4.8312529 6.2261094 4.8066406 6.3339844 L 4.3144531 8.375 C 4.2879211 8.483224 4.3541425 8.5899565 4.4628906 8.6171875 L 5.0488281 8.7578125 C 5.1556558 8.7859125 5.2664033 8.7195541 5.2910156 8.6113281 L 5.7832031 6.5722656 C 5.8095609 6.4640416 5.7430227 6.355181 5.6367188 6.328125 L 5.0488281 6.1875 z M 6.7675781 6.5644531 C 6.1938161 6.5499631 6.0488281 7.1523437 6.0488281 7.1523438 L 4.5605469 13.40625 C 4.5553069 13.43959 4.5527344 13.472519 4.5527344 13.505859 C 4.5527344 13.78026 4.7744278 14 5.0488281 14 C 5.2720838 14 5.4610884 13.85019 5.5214844 13.646484 L 6.3730469 10.126953 L 7.1816406 13.625 C 7.2340066 13.841273 7.4308241 14 7.6621094 14 C 7.9354624 14 8.1542969 13.780085 8.1542969 13.505859 C 8.1542969 13.468499 8.1525944 13.431918 8.1464844 13.396484 L 7.0332031 8.7480469 L 7.1269531 8.3398438 L 7.1992188 8.6621094 C 7.2652007 8.8720994 7.4570312 8.890625 7.4570312 8.890625 L 8.6015625 9.1835938 C 8.6249525 9.1875937 8.648315 9.1894531 8.671875 9.1894531 C 8.859346 9.1894531 9.0097656 9.0406386 9.0097656 8.8535156 C 9.0097656 8.6934486 8.900292 8.5569194 8.75 8.5214844 L 7.7578125 8.2734375 L 7.4863281 7.1660156 C 7.3564592 6.5486156 6.7675781 6.5644531 6.7675781 6.5644531 z M 9.8300781 7.2792969 C 9.7478581 7.2792969 9.6872029 7.3408519 9.6699219 7.4199219 L 8.4882812 13.826172 C 8.4882812 13.830372 8.4863281 13.833837 8.4863281 13.835938 C 8.4863281 13.925487 8.5592405 13.998047 8.6484375 13.998047 C 8.7296075 13.998047 8.7993749 13.935444 8.8105469 13.857422 L 9.9902344 7.4511719 L 9.9902344 7.4394531 C 9.9902344 7.3521731 9.9192711 7.2792969 9.8300781 7.2792969 z " style="fill:#000000;stroke-width:0.17455491" />
</svg>

<svg xmlns="http://www.w3.org/2000/svg" width="14" height="14">
    <path d="M7 0L0 3.5v2l1.5-.65V14H3V4.2l4-1.7 4 1.7V14h1.5V4.85l1.5.65v-2zm-.027 5.049a.704.704 0 10-.002 1.408.704.704 0 00.002-1.408zM5.049 6.187a.199.199 0 00-.242.147l-.493 2.041a.2.2 0 00.149.242l.586.14a.198.198 0 00.242-.146l.492-2.039a.203.203 0 00-.146-.244zm1.719.377c-.574-.014-.72.588-.72.588l-1.487 6.254a.494.494 0 00.96.24l.852-3.519.809 3.498a.494.494 0 00.972-.12.644.644 0 00-.008-.109L7.033 8.748l.094-.408.072.322a.32.32 0 00.258.229l1.145.293a.416.416 0 00.07.005.335.335 0 00.338-.335.34.34 0 00-.26-.333l-.992-.248-.272-1.107c-.13-.617-.718-.602-.718-.602zm3.062.715c-.082 0-.143.062-.16.14l-1.182 6.407-.002.01c0 .09.073.162.162.162a.167.167 0 00.163-.14L9.99 7.45v-.01a.16.16 0 00-.16-.16z" stroke="#fff" stroke-width="3" stroke-linecap="round" stroke-linejoin="round" stroke-opacity=".5"/>
    <path d="M7 0L0 3.5v2l1.5-.65V14H3V4.2l4-1.7 4 1.7V14h1.5V4.85l1.5.65v-2L7 0zm-.027 5.049a.704.704 0 10-.002 1.408.704.704 0 00.002-1.408zM5.049 6.187a.199.199 0 00-.242.147l-.493 2.041a.2.2 0 00.149.242l.586.14a.198.198 0 00.242-.146l.492-2.039a.203.203 0 00-.146-.244l-.588-.14zm1.719.377c-.574-.014-.72.588-.72.588l-1.487 6.254a.494.494 0 00.96.24l.852-3.519.809 3.498a.494.494 0 00.972-.12.644.644 0 00-.008-.109L7.033 8.748l.094-.408.072.322a.32.32 0 00.258.229l1.145.293a.416.416 0 00.07.005.335.335 0 00.338-.335.34.34 0 00-.26-.333l-.992-.248-.272-1.107c-.13-.617-.718-.602-.718-.602zm3.062.715c-.082 0-.143.062-.16.14l-1.182 6.407-.002.01c0 .09.073.162.162.162a.167.167 0 00.163-.14L9.99 7.45v-.01a.16.16 0 00-.16-.16z"/>
</svg>
